static/img/kroki/82ae006d33bf6f65873cd0399d1c8b0e.svg

<?xml version="1.0" encoding="us-ascii" standalone="no"?><svg xmlns="http://www.w3.org/2000/svg" xmlns:xlink="http://www.w3.org/1999/xlink" contentStyleType="text/css" height="252px" preserveAspectRatio="none" style="width:304px;height:252px;" version="1.1" viewBox="0 0 304 252" width="304px" zoomAndPan="magnify"><defs/><g><!--class aws_apigateway_deployment--><g id="elem_aws_apigateway_deployment"><rect codeLine="22" fill="#3D176E" height="39.7891" id="aws_apigateway_deployment" rx="2.5" ry="2.5" style="stroke:#000D19;stroke-width:0.5;" width="290" x="7" y="106.79"/><ellipse cx="22" cy="126.6845" fill="#ADD1B2" rx="11" ry="11" style="stroke:#181818;stroke-width:1.0;"/><path d="M24.9688,132.3252 Q24.3906,132.622 23.75,132.7627 Q23.1094,132.9189 22.4063,132.9189 Q19.9063,132.9189 18.5781,131.2783 Q17.2656,129.622 17.2656,126.497 Q17.2656,123.372 18.5781,121.7158 Q19.9063,120.0595 22.4063,120.0595 Q23.1094,120.0595 23.75,120.2158 Q24.4063,120.372 24.9688,120.6689 L24.9688,123.3877 Q24.3438,122.8095 23.75,122.5439 Q23.1563,122.2627 22.5313,122.2627 Q21.1875,122.2627 20.5,123.3408 Q19.8125,124.4033 19.8125,126.497 Q19.8125,128.5908 20.5,129.6689 Q21.1875,130.7314 22.5313,130.7314 Q23.1563,130.7314 23.75,130.4658 Q24.3438,130.1845 24.9688,129.6064 L24.9688,132.3252 Z " fill="#000000"/><text fill="#D9B8FF" font-family="Helvetica" font-size="17" lengthAdjust="spacing" textLength="248" x="41" y="132.5698">aws_apigateway_deployment</text></g><!--class aws_apigateway_rest_api--><g id="elem_aws_apigateway_rest_api"><rect codeLine="24" fill="#3D176E" height="39.7891" id="aws_apigateway_rest_api" rx="2.5" ry="2.5" style="stroke:#000D19;stroke-width:0.5;" width="256" x="24" y="7"/><ellipse cx="39" cy="26.8945" fill="#ADD1B2" rx="11" ry="11" style="stroke:#181818;stroke-width:1.0;"/><path d="M41.9688,32.5352 Q41.3906,32.832 40.75,32.9727 Q40.1094,33.1289 39.4063,33.1289 Q36.9063,33.1289 35.5781,31.4883 Q34.2656,29.832 34.2656,26.707 Q34.2656,23.582 35.5781,21.9258 Q36.9063,20.2695 39.4063,20.2695 Q40.1094,20.2695 40.75,20.4258 Q41.4063,20.582 41.9688,20.8789 L41.9688,23.5977 Q41.3438,23.0195 40.75,22.7539 Q40.1563,22.4727 39.5313,22.4727 Q38.1875,22.4727 37.5,23.5508 Q36.8125,24.6133 36.8125,26.707 Q36.8125,28.8008 37.5,29.8789 Q38.1875,30.9414 39.5313,30.9414 Q40.1563,30.9414 40.75,30.6758 Q41.3438,30.3945 41.9688,29.8164 L41.9688,32.5352 Z " fill="#000000"/><text fill="#D9B8FF" font-family="Helvetica" font-size="17" lengthAdjust="spacing" textLength="214" x="58" y="32.7798">aws_apigateway_rest_api</text></g><!--class aws_apigateway_stage--><g id="elem_aws_apigateway_stage"><rect codeLine="26" fill="#3D176E" height="39.7891" id="aws_apigateway_stage" rx="2.5" ry="2.5" style="stroke:#000D19;stroke-width:0.5;" width="235" x="34.5" y="206.58"/><ellipse cx="49.5" cy="226.4745" fill="#ADD1B2" rx="11" ry="11" style="stroke:#181818;stroke-width:1.0;"/><path d="M52.4688,232.1152 Q51.8906,232.412 51.25,232.5527 Q50.6094,232.7089 49.9063,232.7089 Q47.4063,232.7089 46.0781,231.0683 Q44.7656,229.412 44.7656,226.287 Q44.7656,223.162 46.0781,221.5058 Q47.4063,219.8495 49.9063,219.8495 Q50.6094,219.8495 51.25,220.0058 Q51.9063,220.162 52.4688,220.4589 L52.4688,223.1777 Q51.8438,222.5995 51.25,222.3339 Q50.6563,222.0527 50.0313,222.0527 Q48.6875,222.0527 48,223.1308 Q47.3125,224.1933 47.3125,226.287 Q47.3125,228.3808 48,229.4589 Q48.6875,230.5214 50.0313,230.5214 Q50.6563,230.5214 51.25,230.2558 Q51.8438,229.9745 52.4688,229.3964 L52.4688,232.1152 Z " fill="#000000"/><text fill="#D9B8FF" font-family="Helvetica" font-size="17" lengthAdjust="spacing" textLength="193" x="68.5" y="232.3598">aws_apigateway_stage</text></g><!--link aws_apigateway_deployment to aws_apigateway_stage--><g id="link_aws_apigateway_deployment_aws_apigateway_stage"><path codeLine="28" d="M152,147.01 C152,164.15 152,183.06 152,200.2 " fill="none" id="aws_apigateway_deployment-to-aws_apigateway_stage" style="stroke:#1A83AF;stroke-width:2.0;"/><polygon fill="#1A83AF" points="152,206.2,156,197.2,152,201.2,148,197.2,152,206.2" style="stroke:#1A83AF;stroke-width:2.0;"/></g><!--link aws_apigateway_rest_api to aws_apigateway_deployment--><g id="link_aws_apigateway_rest_api_aws_apigateway_deployment"><path codeLine="29" d="M152,47.22 C152,64.36 152,83.27 152,100.41 " fill="none" id="aws_apigateway_rest_api-to-aws_apigateway_deployment" style="stroke:#1A83AF;stroke-width:2.0;"/><polygon fill="#1A83AF" points="152,106.41,156,97.41,152,101.41,148,97.41,152,106.41" style="stroke:#1A83AF;stroke-width:2.0;"/></g><!--SRC=[XP9DQyCm38Rl_HM6dWlDmjRsCiW2PRkKiUusHb5ZEJLDx22h2zdOVr_JxiFBLu_M-qZlA-6TbYWmBxWIEUPR93ToUsqA8CX5H6JBs6QMn5WfKE6iAIwjuOl02d8KzvYz8Ui4ciJpJYTxWyw9Aq-wWsIVaZqOUHxF1COT9JJiKN46paNCfBS7HY-CN6pdIZN9vj1nA8FP3ROmInBf6vbEfp9OD96BLeDx_n9h_OuYy8-sieojc2sB4pMOiYQyaAr5V_JUZ8yWfJQfkFPgJ-TCP93-rTSxaBQiQGMPysqS8w7bgi2ujHKkvbBDEk67FZYfBoUWT1ieT0gC9LGRYKLcg_puDSJ7wBER8NHSl_i9nv3YIUuVFtaP1z4yZ9QlazlE_b6VxL3ddy4N]--></g></svg>

<svg xmlns="http://www.w3.org/2000/svg" width="304" height="252" viewBox="0 0 304 252"><rect width="290" height="39.789" x="7" y="106.79" fill="#3D176E" rx="2.5" ry="2.5" style="stroke:#000d19;stroke-width:.5"/><circle cx="22" cy="126.684" r="11" fill="#ADD1B2" style="stroke:#181818;stroke-width:1"/><path d="M24.969 132.325q-.578.297-1.219.438-.64.156-1.344.156-2.5 0-3.828-1.64-1.312-1.657-1.312-4.782t1.312-4.781q1.328-1.656 3.828-1.656.703 0 1.344.156.656.156 1.219.453v2.719q-.625-.579-1.219-.844-.594-.281-1.219-.281-1.343 0-2.031 1.078-.687 1.062-.687 3.156t.687 3.172q.688 1.062 2.031 1.062.625 0 1.219-.265.594-.281 1.219-.86z"/><text x="41" y="132.57" fill="#D9B8FF" font-family="Helvetica" font-size="17" textLength="248">aws_apigateway_deployment</text><rect width="256" height="39.789" x="24" y="7" fill="#3D176E" rx="2.5" ry="2.5" style="stroke:#000d19;stroke-width:.5"/><circle cx="39" cy="26.895" r="11" fill="#ADD1B2" style="stroke:#181818;stroke-width:1"/><path d="M41.969 32.535q-.578.297-1.219.438-.64.156-1.344.156-2.5 0-3.828-1.64-1.312-1.657-1.312-4.782t1.312-4.781q1.328-1.656 3.828-1.656.703 0 1.344.156.656.156 1.219.453v2.719q-.625-.578-1.219-.844-.594-.281-1.219-.281-1.343 0-2.031 1.078-.687 1.062-.687 3.156t.687 3.172q.688 1.062 2.031 1.062.625 0 1.219-.265.594-.281 1.219-.86z"/><text x="58" y="32.78" fill="#D9B8FF" font-family="Helvetica" font-size="17" textLength="214">aws_apigateway_rest_api</text><rect width="235" height="39.789" x="34.5" y="206.58" fill="#3D176E" rx="2.5" ry="2.5" style="stroke:#000d19;stroke-width:.5"/><circle cx="49.5" cy="226.475" r="11" fill="#ADD1B2" style="stroke:#181818;stroke-width:1"/><path d="M52.469 232.115q-.578.297-1.219.438-.64.156-1.344.156-2.5 0-3.828-1.64-1.312-1.657-1.312-4.782t1.312-4.781q1.328-1.656 3.828-1.656.703 0 1.344.156.656.156 1.219.453v2.719q-.625-.578-1.219-.844-.594-.281-1.219-.281-1.343 0-2.031 1.078-.687 1.062-.687 3.156t.687 3.172q.688 1.062 2.031 1.062.625 0 1.219-.265.594-.281 1.219-.86z"/><text x="68.5" y="232.36" fill="#D9B8FF" font-family="Helvetica" font-size="17" textLength="193">aws_apigateway_stage</text><path fill="none" d="M152 147.01v53.19" style="stroke:#1a83af;stroke-width:2"/><path fill="#1A83AF" d="m152 206.2 4-9-4 4-4-4z" style="stroke:#1a83af;stroke-width:2"/><path fill="none" d="M152 47.22v53.19" style="stroke:#1a83af;stroke-width:2"/><path fill="#1A83AF" d="m152 106.41 4-9-4 4-4-4z" style="stroke:#1a83af;stroke-width:2"/></svg>
